X: 21041
Q: "Moderato"
M: 3/4
L: 1/8
K: D
d2 |\
a3 g f2 | {f}e2 d2 c2 | d3 e (3(fga) | A4 (dc) |\
{g}f3 e d2 | a2 A2 e>d | {d}c3 B A2 | e4 e2 |\
f4 b^g | a4 cd | e3 f e2 | A4 (ec) |
d'2 c'2 b2 | {b}a2 (gf)(ed) | A4 (dc) |
f>e d(fed) |\
e>d egfe | f/d/e/f/ g/a/b/c'/ Hd'2 g2 | fb(ag)(fe) | d4 :|


